!! 00000] TT[00
!! NN
!!!OTL: Chatian shange
!!!ARE: Asia, China,ÿHunan, Zhuzhou
!! Ethnic Group: Han
!! I, 554
!!!SCT: C0133B
!!!YEM: Copyright 1995, estate of Helmut Schaffrath.
**kern
*ICvox
*Ivox
!! Mixed meters:  3/4; 4/4
*M4/4
*k[]
*C:
{8r
16dd
16dd
=1
2ee
16dd
16ee
16dd
16ee
16cc
16dd
16cc
16dd
=2
*M3/4
2.a}
=3
{8cc
8a
=4
*M4/4
4.dd
16cc
16dd
4.a
16dd
16dd
=5
2ee}
{16dd
16ee
16dd
16ee
16cc
16dd
16cc
16dd
=6
1a}
=7
*M3/4
{16dd
16ee
16cc
[16a
4.a]
16dd
16dd
=8
2ee}
{16cc
16dd
16cc
16dd
=9
*M4/4
1a}
=10
*M3/4
{16dd
16ee
16cc
[16a
4.a]
16dd
16dd
=11
*M4/4
2ee}
{16dd
16ee
16dd
16ee
16dd
16dd
16cc
16b
=12
*M3/4
2.a}
=13
{16a
16b
4.a
8r
16dd
16dd
=14
*M4/4
2ee}
{16dd
16ee
16dd
16ee
16cc
16dd
16cc
16dd
=15
1a}
=16
{16dd
16ee
16dd
16ee
16.dd
32dd
16cc
16b
8a
8r
16.dd
32ee
16dd
16ee
=17
*M3/4
2ee}
{16dd
16dd
16cc
16b
=18
2.a}
=19
*M4/4
{16.dd
32ee
16e
16g
4a
16cc
16b
4.a}
=20
{16.dd
32ee
16dd
16ee
16dd
16ee
8r
16.dd
32dd
16cc
16b
8a
8r}
=21
{8a
16ee
16dd
=22
2ee
16dd
16ee
16dd
16ee
16cc
16dd
16cc
16dd
=23
2.a}
==
!!!AGN: Shange, Gaoqiang shange. Datian laodong shi chang
!! Die Melodie wird wiederholt. Die Einleitung zu diesem Lied wird auf
!!    Fuellwoerter gesungen, sie lautet:
!!    +2_+2_  +3____+2_+3_+2_+3_+1_+2_+1_+2_  6____.
!!    Sehr wenig Verzierungen. ++++ Der Titel ist falsch. Die Noten konnten noch
!!    nicht gefunden werden. +++ Ein Analysefehler kann mit dem Takt-
!!    wechsel und folgenden "Auftakt" der vorletzten zur letzten Zeile
!!    zusammenh„ngen ++++++++++++
!!!ONB: ESAC (Essen Associative Code) Database: CHINA
!!!AMT: irregular
!!!AIN: vox
!!!EED: Helmut Schaffrath
!!!EEV: 1.0
*-
